X:1
T:Chanson Roland
%%staffscale 0.9
M:3/2
L:1/8
K:G
%%score 1 2
V:1 clef-treble
V:2 clef-bass octave=-1
[V:1]d4A4G4 & [DB]4F4^C4|F3GA4z4 & D3EF4z4|c4A8 & A4F8|B4G8 & G4B,8|d4A4G4 & F4D4^C4|
[V:2]G,4C4E4|D8D4|D,8D4|G,8D4|D,4F4E4|
[V:1]F3GA4z4 &D3EF4z4|c4B4A4 & [EG]4[DG]4[DF]4|[B,G]12|A4A4G4 & [DF]4E4^C4|F4E4D4 & D12|
[V:2]D8z4|C4D8|G,12|A12 & D4^C4A,4|A4G4F4 & D12|
[V:1][FA]4[GB]4[Ac]4 & D12|[DGB]12|d4A4G4 & F4D4^C4|F3GA4c4 & D8[EG]4|[GB]8A4 & D8[DF]4|G12 & B,8x4||
[V:2]D,8D4|G,4B,4G,4|D4F4E4|D8C4|D8D,4|G,12||

